src/assets/svg/logo-light.svg

<svg width="1005" height="201" viewBox="0 0 1005 201" fill="none" xmlns="http://www.w3.org/2000/svg">
<path d="M231.928 171.817C233.075 171.817 234.031 170.955 234.031 169.808C234.031 168.662 233.075 167.8 231.928 167.8C230.815 167.8 229.858 168.662 229.858 169.808C229.858 170.955 230.815 171.817 231.928 171.817ZM245.784 171.817C246.93 171.817 247.887 170.955 247.887 169.808C247.887 168.662 246.93 167.8 245.784 167.8C244.671 167.8 243.714 168.662 243.714 169.808C243.714 170.955 244.671 171.817 245.784 171.817ZM259.64 171.817C260.786 171.817 261.739 170.955 261.739 169.808C261.739 168.662 260.783 167.8 259.64 167.8C258.527 167.8 257.57 168.662 257.57 169.808C257.57 170.955 258.527 171.817 259.64 171.817ZM288.21 153.082V149.926H272.888V171.593H276.328V163.023H286.808V159.867H276.328V153.082H288.21ZM309.231 149.547C302.988 149.547 297.957 154.517 297.957 160.764C297.957 167.01 302.988 171.98 309.231 171.98C315.473 171.98 320.504 167.01 320.504 160.764C320.504 154.517 315.473 149.547 309.231 149.547ZM309.231 168.76C304.803 168.76 301.427 165.191 301.427 160.764C301.427 156.336 304.803 152.733 309.231 152.733C313.658 152.733 317.034 156.332 317.034 160.764C317.034 165.195 313.658 168.76 309.231 168.76ZM346.432 171.597H350.635L344.582 163.725C347.514 162.704 349.424 160.316 349.424 157.096C349.424 152.729 345.919 149.926 341.078 149.926H332.382V171.593H335.822V164.265H340.823L346.428 171.593L346.432 171.597ZM335.826 153.082H340.952C343.849 153.082 346.048 154.612 346.048 157.096C346.048 159.579 343.849 161.109 340.952 161.109H335.826V153.078V153.082ZM386.883 171.597H390.547L380.99 149.93H377.773L368.186 171.597H371.85L374.079 166.402H384.654L386.883 171.597ZM375.351 163.346L379.364 154.008L383.348 163.346H375.355H375.351ZM410.038 159.841V163.027H417.332C416.569 166.342 414.116 168.764 410.292 168.764C405.675 168.764 402.554 165.165 402.554 160.988C402.554 156.082 405.964 152.736 410.516 152.736C413.064 152.736 416.091 153.948 417.203 157.293H420.867C419.595 152.133 415.134 149.551 410.452 149.551C404.145 149.551 399.083 154.267 399.083 160.988C399.083 167.01 403.83 171.98 410.296 171.98C413.991 171.98 416.569 170.386 418.099 167.868L418.354 171.597H421.061V159.841H410.042H410.038ZM448.226 171.597H452.43L446.377 163.725C449.308 162.704 451.218 160.316 451.218 157.096C451.218 152.729 447.713 149.926 442.872 149.926H434.176V171.593H437.617V164.265H442.618L448.222 171.593L448.226 171.597ZM437.621 153.082H442.747C445.644 153.082 447.843 154.612 447.843 157.096C447.843 159.579 445.644 161.109 442.747 161.109H437.621V153.078V153.082ZM463.035 149.926V171.593H466.475V149.926H463.035ZM489.63 168.791C485.203 168.791 481.858 165.415 481.858 160.76C481.858 156.074 485.203 152.729 489.63 152.729C493.23 152.729 495.713 154.768 496.575 158.113H500.111C499.093 152.919 495.045 149.543 489.63 149.543C483.388 149.543 478.387 154.259 478.387 160.76C478.387 167.23 483.388 172.007 489.63 172.007C495.045 172.007 499.093 168.567 500.111 163.372H496.575C495.717 166.752 493.23 168.791 489.63 168.791ZM530.431 149.926H527.021V162.066C527.021 166.049 524.568 168.791 520.938 168.791C517.308 168.791 514.885 166.049 514.885 162.066V149.926H511.445V162.066C511.445 168.153 515.269 171.977 520.938 171.977C526.638 171.977 530.431 168.153 530.431 162.066V149.926ZM546.166 168.407V149.926H542.726V171.593H557.729V168.407H546.166ZM581.138 149.926H562.377V153.082H570.051V171.597H573.461V153.082H581.138V149.926ZM610.312 149.926H606.906V162.066C606.906 166.049 604.453 168.791 600.823 168.791C597.193 168.791 594.77 166.049 594.77 162.066V149.926H591.33V162.066C591.33 168.153 595.15 171.977 600.823 171.977C606.522 171.977 610.316 168.153 610.316 162.066V149.926H610.312ZM636.653 171.593H640.856L634.804 163.722C637.735 162.7 639.645 160.312 639.645 157.092C639.645 152.725 636.14 149.923 631.299 149.923H622.604V171.589H626.044V164.261H631.045L636.649 171.589L636.653 171.593ZM626.048 153.078H631.177C634.075 153.078 636.273 154.608 636.273 157.092C636.273 159.575 634.075 161.105 631.177 161.105H626.048V153.074V153.078ZM668.663 171.593H672.327L662.774 149.926H659.558L649.97 171.593H653.634L655.863 166.399H666.438L668.667 171.593H668.663ZM657.131 163.342L661.145 154.005L665.124 163.342H657.131ZM686.529 168.407V149.926H683.089V171.593H698.091V168.407H686.529ZM732.968 153.082V149.926H717.426V171.593H732.968V168.407H720.863V162.45H731.692V159.294H720.863V153.082H732.968ZM762.81 171.597L755.007 160.859L762.586 149.93H758.413L752.714 158.121L747.01 149.93H742.837L750.416 160.859L742.643 171.597H746.627L752.74 163.441L758.823 171.597H762.803H762.81ZM782.525 168.791C778.098 168.791 774.752 165.415 774.752 160.76C774.752 156.074 778.098 152.729 782.525 152.729C786.125 152.729 788.608 154.768 789.47 158.113H793.005C791.988 152.919 787.94 149.543 782.525 149.543C776.283 149.543 771.282 154.259 771.282 160.76C771.282 167.23 776.283 172.007 782.525 172.007C787.94 172.007 791.984 168.567 793.005 163.372H789.47C788.612 166.752 786.125 168.791 782.525 168.791ZM820.459 153.082V149.926H804.917V171.593H820.459V168.407H808.353V162.45H819.183V159.294H808.353V153.082H820.459ZM835.587 168.407V149.926H832.147V171.593H847.149V168.407H835.587ZM861.48 168.407V149.926H858.039V171.593H873.042V168.407H861.48ZM899.478 153.082V149.926H883.936V171.593H899.478V168.407H887.373V162.45H898.202V159.294H887.373V153.082H899.478ZM926.711 149.926V165.54L913.812 149.926H911.169V171.593H914.61V156.298L927.383 171.593H930.121V149.926H926.715H926.711ZM953.272 168.791C948.845 168.791 945.5 165.415 945.5 160.76C945.5 156.074 948.845 152.729 953.272 152.729C956.872 152.729 959.356 154.768 960.217 158.113H963.753C962.735 152.919 958.687 149.543 953.272 149.543C947.03 149.543 942.029 154.259 942.029 160.76C942.029 167.23 947.03 172.007 953.272 172.007C958.687 172.007 962.735 168.567 963.753 163.372H960.217C959.359 166.752 956.872 168.791 953.272 168.791ZM991.206 153.082V149.926H975.664V171.593H991.206V168.407H979.101V162.45H989.93V159.294H979.101V153.082H991.206Z" fill="white"/>
<path d="M304.159 42.7506V32.1641H236.428V130.788H247.885V89.5963H298.064V79.0097H247.885V42.7506H304.159ZM365.722 63.4907V70.4509C359.776 64.9412 351.654 61.7478 342.081 61.7478C322.791 61.7478 307.417 77.5554 307.417 97.1374C307.417 116.864 322.791 132.527 342.081 132.527C351.654 132.527 359.776 129.337 365.722 123.824V130.784H376.745V63.4869H365.722V63.4907ZM343.531 122.373C329.319 122.373 318.44 111.062 318.44 97.1374C318.44 83.2132 329.319 71.9014 343.531 71.9014C352.379 71.9014 360.212 75.2354 365.722 83.3575V110.914C360.212 119.036 352.379 122.37 343.531 122.37V122.373ZM407.704 74.5139V63.4907H396.68V130.788H407.704V86.9876C413.65 77.7035 422.642 72.6305 433.665 72.3381V61.8959C422.934 61.8959 413.939 66.536 407.704 74.5139ZM527.28 61.7516C516.549 61.7516 508.279 65.8146 501.756 72.9191C497.116 65.5222 489.138 61.7516 478.84 61.7516C469.123 61.7516 462.163 65.0893 456.649 70.7433V63.4907H445.626V130.788H456.649V83.217C461.87 75.3872 469.267 71.9052 477.678 71.9052C487.976 71.9052 495.08 77.2706 495.08 90.4696V130.788H506.103V90.4696C506.103 87.8572 505.959 85.5371 505.522 83.3613C510.888 75.2392 518.429 71.9052 526.551 71.9052C537.574 71.9052 544.535 77.7073 544.535 91.0506V130.788H555.558V91.0506C555.558 71.7609 544.39 61.7516 527.276 61.7516H527.28ZM584.929 106.714L564.044 106.57C565.639 125.278 580.577 132.675 598.709 132.675C617.129 132.675 631.63 125.423 631.63 109.178C631.63 96.7046 622.783 90.3253 609.728 87.8572L596.674 85.6814C591.016 84.6675 589.277 82.4918 589.277 80.0236C589.277 77.4111 592.033 75.2354 598.124 75.2354C604.651 75.2354 609.728 77.5554 610.161 82.7765H630.901C629.887 64.2122 614.801 58.5544 598.124 58.5544C579.415 58.5544 566.797 67.2575 566.797 82.0513C566.797 94.3807 575.352 101.197 587.393 103.224L601.606 105.689C606.246 106.414 609.003 108.153 609.003 110.621C609.003 113.667 605.088 115.406 598.849 115.406C591.452 115.406 585.943 112.793 584.925 106.703L584.929 106.714ZM694.538 108.164C690.331 109.759 686.56 111.065 682.064 111.065C675.248 111.065 671.041 107.728 671.041 100.479V80.6084H694.971V60.4492H671.041V36.5194H647.544V60.4492H633.764V80.6084H647.544V101.204C647.544 120.205 659.148 132.675 678.29 132.675C682.349 132.675 689.894 132.242 697.143 129.193L694.534 108.164H694.538ZM753.819 60.4492V64.0755C748.598 60.5935 742.36 58.5658 734.53 58.5658C715.529 58.5658 699.577 74.5215 699.577 95.5502C699.577 116.435 715.533 132.679 734.53 132.679C742.363 132.679 748.598 130.503 753.819 127.021V130.792H777.316V60.4492H753.819ZM739.314 112.66C729.742 112.66 722.637 105.263 722.637 95.5464C722.637 85.8295 729.745 78.4326 739.314 78.4326C744.391 78.4326 749.324 79.7388 753.819 84.6675V106.422C749.324 111.354 744.391 112.656 739.314 112.656V112.66ZM837.464 59.2872C827.021 59.2872 819.48 62.6212 813.241 67.9904V60.4492H789.6V130.792H813.241V90.4734C818.751 85.108 826.004 82.0627 837.464 81.626V59.291V59.2872ZM976.041 130.788H1004.18L975.172 89.1634L1001.86 60.4454H973.865L949.499 86.6952V27.8125H925.858V130.784H949.499V116.86L959.216 106.418L976.041 130.784V130.788ZM880.789 112.805C870.636 112.805 864.689 105.119 864.689 95.5464C864.689 85.9738 870.636 78.4326 880.789 78.4326C887.898 78.4326 893.407 82.9284 894.569 89.3115H916.76C915.021 71.1838 900.083 58.5658 880.645 58.5658C858.599 58.5658 842.21 74.2291 842.21 95.5502C842.21 117.016 858.599 132.679 880.645 132.679C900.079 132.679 915.017 120.061 916.76 101.933H894.569C893.407 108.316 887.898 112.812 880.789 112.812V112.805Z" fill="white"/>
<path fill-rule="evenodd" clip-rule="evenodd" d="M206.566 100.074C206.566 44.8028 160.324 0 103.283 0C46.2419 0 0 44.8066 0 100.074C0 155.346 46.2419 200.149 103.283 200.149C160.324 200.149 206.566 155.342 206.566 100.074ZM114.124 55.1046C114.134 55.0842 114.144 55.062 114.152 55.0701V55.0739L114.395 54.5537L114.377 54.5767C114.319 54.6505 114.279 54.7004 114.228 54.8005C114.216 54.8233 114.182 54.8992 114.174 54.922C114.144 54.9998 114.137 55.0103 114.134 55.0217C114.131 55.0331 114.131 55.0454 114.114 55.127C114.113 55.1281 114.113 55.1292 114.113 55.1303C113.26 55.7987 110 63.6959 109.527 65.1895L109.462 65.3939C108.232 69.2599 107.367 71.9774 106.58 76.2279C105.175 83.7805 104.799 89.7458 104.678 97.3288C104.675 97.5358 104.679 97.8243 104.683 98.1454C104.695 98.9904 104.71 100.061 104.605 100.465L102.107 100.78C101.995 99.9723 102.106 98.3186 102.184 97.1591C102.201 96.8966 102.217 96.6593 102.228 96.463C102.243 96.1981 102.28 95.7748 102.323 95.2913C102.428 94.0976 102.565 92.5373 102.468 92.0887C101.596 91.717 100.234 90.6839 99.3053 89.9792C99.1902 89.892 99.0819 89.8097 98.9819 89.7344C95.1619 86.8486 92.4356 82.0338 91.9685 76.9494C91.3838 70.5701 94.3304 63.9023 96.6656 60.2304L99.0123 56.7256L101.746 53.3651C108.175 46.1391 116.054 40.5193 126.082 37.6562C126.009 38.0649 125.873 38.4344 125.711 38.8719C125.36 39.8248 124.889 41.1 124.696 43.8039C124.382 48.1849 125.169 52.9977 125.973 57.9072C128.215 71.6018 130.58 86.0489 109.485 93.9759C108.305 94.4191 107.797 94.7112 107.576 94.5661C107.378 94.4353 107.413 93.949 107.4 92.8975C107.279 82.6489 108.847 70.5094 112.063 60.9519L113.559 56.6003C113.618 56.451 113.687 56.3006 113.756 56.15C113.913 55.8078 114.07 55.4645 114.113 55.1303C114.115 55.1292 114.116 55.1281 114.117 55.127H114.114C114.117 55.1214 114.121 55.1132 114.124 55.1046ZM100.098 101.802L59.6508 74.2192L59.2825 100.332L100.098 128.276V101.802ZM100.098 136.014L65.3921 112.886L65.0238 138.995L100.098 162.488V136.014ZM106.462 101.802L146.91 74.2192L147.282 100.332L106.462 128.276V101.802ZM106.462 136.014L141.689 112.886L142.061 138.995L106.462 162.488V136.014ZM62.0561 46.125C61.8192 46.0106 61.585 45.8976 61.4203 45.7746H61.4165L61.4127 45.7708C62.1303 45.0569 66.1174 43.6786 67.3742 43.2988C76.1723 40.6218 87.3777 40.6256 95.7277 43.7013C97.3567 44.3051 98.9515 44.9468 100.326 45.7328C101.245 46.2568 103.763 47.7377 104.378 48.5579C101.872 50.9805 99.7603 53.2968 97.744 56.0346C97.5614 56.2809 97.3033 56.6697 97.0341 57.0753C96.5812 57.7576 96.0968 58.4874 95.8872 58.666C95.549 58.5143 95.0641 58.159 94.613 57.8283C94.3753 57.6542 94.147 57.4869 93.9544 57.3598C90.3851 54.9979 87.7992 53.593 83.9033 51.7627C83.1781 51.421 80.2656 50.2211 79.5518 50.13L81.5908 51.2008C83.0808 51.9659 84.2399 52.6891 85.4802 53.463C86.1049 53.8528 86.7503 54.2554 87.4689 54.6828C88.5055 55.3017 94.0038 59.1292 94.9645 60.1013C94.9374 60.4666 94.6423 60.9572 94.3884 61.3795C94.286 61.5498 94.1903 61.7089 94.1215 61.8442C93.2633 63.5529 92.4697 65.2237 91.8584 67.0843C91.0914 69.431 90.4686 72.3738 90.4762 74.8913C89.3409 74.8192 86.6449 73.6192 85.7905 73.1104C81.1959 70.3613 78.2228 66.378 75.1432 61.6961C74.6071 60.8798 74.0628 60.0255 73.5074 59.154C71.1052 55.384 68.497 51.2907 65.4529 48.5427C64.7238 47.882 63.3416 46.8264 62.4949 46.348C62.359 46.2712 62.207 46.1978 62.0561 46.125Z" fill="white"/>
</svg>

<svg xmlns="http://www.w3.org/2000/svg" width="1005" height="201" fill="none"><path fill="#fff" d="M231.928 171.817c1.147 0 2.103-.862 2.103-2.009s-.956-2.008-2.103-2.008c-1.113 0-2.07.862-2.07 2.008 0 1.147.957 2.009 2.07 2.009m13.856 0c1.146 0 2.103-.862 2.103-2.009s-.957-2.008-2.103-2.008c-1.113 0-2.07.862-2.07 2.008 0 1.147.957 2.009 2.07 2.009m13.856 0c1.146 0 2.099-.862 2.099-2.009s-.956-2.008-2.099-2.008c-1.113 0-2.07.862-2.07 2.008 0 1.147.957 2.009 2.07 2.009m28.57-18.735v-3.156h-15.322v21.667h3.44v-8.57h10.48v-3.156h-10.48v-6.785zm21.021-3.535c-6.243 0-11.274 4.97-11.274 11.217 0 6.246 5.031 11.216 11.274 11.216s11.273-4.97 11.273-11.216c0-6.247-5.031-11.217-11.273-11.217m0 19.213c-4.428 0-7.804-3.569-7.804-7.996s3.376-8.031 7.804-8.031c4.427 0 7.803 3.599 7.803 8.031 0 4.431-3.376 7.996-7.803 7.996m37.201 2.837h4.203l-6.053-7.872c2.932-1.021 4.842-3.409 4.842-6.629 0-4.367-3.505-7.17-8.346-7.17h-8.696v21.667h3.44v-7.328h5.001l5.605 7.328zm-10.606-18.515h5.126c2.897 0 5.096 1.53 5.096 4.014s-2.199 4.013-5.096 4.013h-5.126v-8.031zm51.057 18.515h3.664l-9.557-21.667h-3.217l-9.587 21.667h3.664l2.229-5.195h10.575zm-11.532-8.251 4.013-9.338 3.984 9.338zm34.687-3.505v3.186h7.294c-.763 3.315-3.216 5.737-7.04 5.737-4.617 0-7.738-3.599-7.738-7.776 0-4.906 3.41-8.252 7.962-8.252 2.548 0 5.575 1.212 6.687 4.557h3.664c-1.272-5.16-5.733-7.742-10.415-7.742-6.307 0-11.369 4.716-11.369 11.437 0 6.022 4.747 10.992 11.213 10.992 3.695 0 6.273-1.594 7.803-4.112l.255 3.729h2.707v-11.756zm38.188 11.756h4.204l-6.053-7.872c2.931-1.021 4.841-3.409 4.841-6.629 0-4.367-3.505-7.17-8.346-7.17h-8.696v21.667h3.441v-7.328h5.001l5.604 7.328zm-10.605-18.515h5.126c2.897 0 5.096 1.53 5.096 4.014s-2.199 4.013-5.096 4.013h-5.126v-8.031zm25.414-3.156v21.667h3.44v-21.667zm26.595 18.865c-4.427 0-7.772-3.376-7.772-8.031 0-4.686 3.345-8.031 7.772-8.031 3.6 0 6.083 2.039 6.945 5.384h3.536c-1.018-5.194-5.066-8.57-10.481-8.57-6.242 0-11.243 4.716-11.243 11.217 0 6.47 5.001 11.247 11.243 11.247 5.415 0 9.463-3.44 10.481-8.635h-3.536c-.858 3.38-3.345 5.419-6.945 5.419m40.801-18.865h-3.41v12.14c0 3.983-2.453 6.725-6.083 6.725s-6.053-2.742-6.053-6.725v-12.14h-3.44v12.14c0 6.087 3.824 9.911 9.493 9.911 5.7 0 9.493-3.824 9.493-9.911zm15.735 18.481v-18.481h-3.44v21.667h15.003v-3.186zm34.972-18.481h-18.761v3.156h7.674v18.515h3.41v-18.515h7.677zm29.174 0h-3.406v12.14c0 3.983-2.453 6.725-6.083 6.725s-6.053-2.742-6.053-6.725v-12.14h-3.44v12.14c0 6.087 3.82 9.911 9.493 9.911 5.699 0 9.493-3.824 9.493-9.911v-12.14zm26.341 21.667h4.203l-6.052-7.871c2.931-1.022 4.841-3.41 4.841-6.63 0-4.367-3.505-7.169-8.346-7.169h-8.695v21.666h3.44v-7.328h5.001l5.604 7.328zm-10.605-18.515h5.129c2.898 0 5.096 1.53 5.096 4.014s-2.198 4.013-5.096 4.013h-5.129v-8.031zm42.615 18.515h3.664l-9.553-21.667h-3.216l-9.588 21.667h3.664l2.229-5.194h10.575l2.229 5.194zm-11.532-8.251 4.014-9.337 3.979 9.337zm29.398 5.065v-18.481h-3.44v21.667h15.002v-3.186zm46.439-15.325v-3.156h-15.542v21.667h15.542v-3.186h-12.105v-5.957h10.829v-3.156h-10.829v-6.212zm29.842 18.515-7.803-10.738 7.579-10.929h-4.173l-5.699 8.191-5.704-8.191h-4.173l7.579 10.929-7.773 10.738h3.984l6.113-8.156 6.083 8.156zm19.715-2.806c-4.427 0-7.773-3.376-7.773-8.031 0-4.686 3.346-8.031 7.773-8.031 3.6 0 6.083 2.039 6.945 5.384h3.535c-1.017-5.194-5.065-8.57-10.48-8.57-6.242 0-11.243 4.716-11.243 11.217 0 6.47 5.001 11.247 11.243 11.247 5.415 0 9.459-3.44 10.48-8.635h-3.535c-.858 3.38-3.345 5.419-6.945 5.419m37.934-15.709v-3.156h-15.542v21.667h15.542v-3.186h-12.106v-5.957h10.83v-3.156h-10.83v-6.212zm15.128 15.325v-18.481h-3.44v21.667h15.002v-3.186zm25.893 0v-18.481h-3.441v21.667h15.003v-3.186zm37.998-15.325v-3.156h-15.542v21.667h15.542v-3.186h-12.105v-5.957h10.829v-3.156h-10.829v-6.212zm27.233-3.156v15.614l-12.899-15.614h-2.643v21.667h3.441v-15.295l12.773 15.295h2.738v-21.667zm26.561 18.865c-4.427 0-7.772-3.376-7.772-8.031 0-4.686 3.345-8.031 7.772-8.031 3.6 0 6.084 2.039 6.945 5.384h3.536c-1.018-5.194-5.066-8.57-10.481-8.57-6.242 0-11.243 4.716-11.243 11.217 0 6.47 5.001 11.247 11.243 11.247 5.415 0 9.463-3.44 10.481-8.635h-3.536c-.858 3.38-3.345 5.419-6.945 5.419m37.934-15.709v-3.156h-15.542v21.667h15.542v-3.186h-12.105v-5.957h10.829v-3.156h-10.829v-6.212zM304.159 42.75V32.165h-67.731v98.624h11.457V89.596h50.179V79.01h-50.179V42.75zm61.563 20.74v6.96c-5.946-5.509-14.068-8.702-23.641-8.702-19.29 0-34.664 15.807-34.664 35.39 0 19.726 15.374 35.389 34.664 35.389 9.573 0 17.695-3.19 23.641-8.703v6.96h11.023V63.487h-11.023zm-22.191 58.883c-14.212 0-25.091-11.311-25.091-25.236 0-13.924 10.879-25.236 25.091-25.236 8.848 0 16.681 3.334 22.191 11.457v27.556c-5.51 8.122-13.343 11.456-22.191 11.456zm64.173-47.86V63.492H396.68v67.297h11.024v-43.8c5.946-9.284 14.938-14.358 25.961-14.65V61.896c-10.731 0-19.726 4.64-25.961 12.618M527.28 61.753c-10.731 0-19.001 4.063-25.524 11.167-4.64-7.397-12.618-11.167-22.916-11.167-9.717 0-16.677 3.337-22.191 8.991v-7.252h-11.023v67.297h11.023V83.217c5.221-7.83 12.618-11.312 21.029-11.312 10.298 0 17.402 5.366 17.402 18.565v40.318h11.023V90.47c0-2.613-.144-4.933-.581-7.109 5.366-8.122 12.907-11.456 21.029-11.456 11.023 0 17.984 5.802 17.984 19.146v39.737h11.023V91.051c0-19.29-11.168-29.3-28.282-29.3zm57.649 44.962-20.885-.144c1.595 18.708 16.533 26.105 34.665 26.105 18.42 0 32.921-7.252 32.921-23.497 0-12.473-8.847-18.853-21.902-21.32l-13.054-2.177c-5.658-1.013-7.397-3.19-7.397-5.657 0-2.613 2.756-4.789 8.847-4.789 6.527 0 11.604 2.32 12.037 7.541h20.74c-1.014-18.564-16.1-24.222-32.777-24.222-18.709 0-31.327 8.703-31.327 23.497 0 12.33 8.555 19.146 20.596 21.173l14.213 2.465c4.64.725 7.397 2.464 7.397 4.932 0 3.046-3.915 4.785-10.154 4.785-7.397 0-12.906-2.613-13.924-8.703zm109.609 1.45c-4.207 1.595-7.978 2.901-12.474 2.901-6.816 0-11.023-3.337-11.023-10.586V80.61h23.93V60.45h-23.93V36.52h-23.497v23.93h-13.78v20.16h13.78v20.595c0 19.001 11.604 31.471 30.746 31.471 4.059 0 11.604-.433 18.853-3.482l-2.609-21.029zm59.281-47.715v3.627c-5.221-3.482-11.459-5.51-19.289-5.51-19.001 0-34.953 15.956-34.953 36.984 0 20.885 15.956 37.129 34.953 37.129 7.833 0 14.068-2.176 19.289-5.658v3.771h23.497V60.449zm-14.505 52.211c-9.572 0-16.677-7.397-16.677-17.114s7.108-17.113 16.677-17.113c5.077 0 10.01 1.306 14.505 6.234v21.755c-4.495 4.932-9.428 6.234-14.505 6.234zm98.15-53.373c-10.443 0-17.984 3.334-24.223 8.703v-7.54H789.6v70.342h23.641v-40.32c5.51-5.365 12.763-8.41 24.223-8.847zm138.577 71.501h28.139l-29.008-41.625 26.688-28.718h-27.995l-24.366 26.25V27.813h-23.641v102.971h23.641V116.86l9.717-10.442 16.825 24.366zm-95.252-17.983c-10.153 0-16.1-7.686-16.1-17.259 0-9.572 5.947-17.113 16.1-17.113 7.109 0 12.618 4.495 13.78 10.878h22.191c-1.739-18.127-16.677-30.745-36.115-30.745-22.046 0-38.435 15.663-38.435 36.984 0 21.466 16.389 37.129 38.435 37.129 19.434 0 34.372-12.618 36.115-30.746h-22.191c-1.162 6.383-6.671 10.879-13.78 10.879z"/><path fill="#fff" fill-rule="evenodd" d="M206.566 100.074C206.566 44.803 160.324 0 103.283 0S0 44.807 0 100.074c0 55.272 46.242 100.075 103.283 100.075s103.283-44.807 103.283-100.075m-92.442-44.97c.01-.02.02-.042.028-.034v.004l.243-.52-.018.023c-.058.074-.098.123-.149.224a2 2 0 0 0-.054.121c-.03.078-.037.088-.04.1-.003.011-.003.023-.02.105l-.001.003c-.853.669-4.113 8.566-4.586 10.06l-.065.204c-1.23 3.866-2.095 6.583-2.882 10.834-1.405 7.553-1.781 13.518-1.902 21.1-.003.208.001.496.005.817.012.845.027 1.916-.078 2.32l-2.498.315c-.112-.808-.001-2.461.077-3.62.017-.263.033-.5.044-.697.015-.265.052-.688.095-1.172.105-1.193.242-2.754.145-3.202-.872-.372-2.234-1.405-3.163-2.11l-.323-.245c-3.82-2.885-6.546-7.7-7.013-12.785-.585-6.379 2.361-13.047 4.697-16.719l2.346-3.504 2.734-3.36c6.429-7.227 14.308-12.847 24.336-15.71-.073.409-.209.778-.371 1.216-.351.953-.822 2.228-1.015 4.932-.314 4.38.473 9.194 1.277 14.103 2.242 13.695 4.607 28.142-16.488 36.069-1.18.443-1.688.735-1.909.59-.198-.13-.163-.617-.176-1.669-.121-10.248 1.447-22.388 4.663-31.945l1.496-4.352c.059-.149.128-.3.197-.45.157-.342.314-.685.357-1.02l.004-.003h-.003zm-14.026 46.698L59.651 74.219l-.369 26.113 40.816 27.944zm0 34.212-34.706-23.128-.368 26.109 35.074 23.493zm6.364-34.212 40.448-27.583.372 26.113-40.82 27.944zm0 34.212 35.227-23.128.372 26.109-35.599 23.493zM62.056 46.125c-.237-.114-.471-.227-.636-.35h-.004l-.003-.004c.717-.714 4.704-2.092 5.961-2.472 8.798-2.677 20.004-2.673 28.354.402 1.629.604 3.224 1.246 4.598 2.032.919.524 3.437 2.005 4.052 2.825-2.506 2.422-4.618 4.739-6.634 7.477-.183.246-.44.635-.71 1.04-.453.683-.937 1.412-1.147 1.591-.338-.152-.823-.507-1.274-.838-.238-.174-.466-.341-.659-.468-3.569-2.362-6.155-3.767-10.05-5.597-.726-.342-3.638-1.542-4.352-1.633l2.039 1.07c1.49.766 2.649 1.49 3.89 2.263.624.39 1.27.792 1.988 1.22 1.037.619 6.535 4.446 7.496 5.418-.028.366-.323.856-.577 1.279-.102.17-.198.329-.267.464-.858 1.709-1.651 3.38-2.263 5.24-.767 2.347-1.39 5.29-1.382 7.807-1.135-.072-3.831-1.272-4.686-1.78-4.594-2.75-7.567-6.733-10.647-11.415-.536-.816-1.08-1.67-1.636-2.542-2.402-3.77-5.01-7.863-8.054-10.611-.73-.661-2.111-1.717-2.958-2.195a8 8 0 0 0-.439-.223" clip-rule="evenodd"/></svg>
